X:132
T:Earl of Crawford (not ugly)
Z:Jack Campin - http://www.campin.me.uk
S:Blaikie MS (NLS MS.1578) p39, Blaikie #126
M:3/4
L:1/8
V:1 midi program 1 74
V:2 midi program 1 46 bass middle = d transpose -24
K:C
Q:1/4=100
[V:1] C2|EG G2 e2|dec3 C|EG G2 e2|d>c c2 GA|_BB A2 A/c/A|GE D2 EG|Ac A2 cE|D>C C2|]
[V:2] z2|c4    c2|G2c2z2|c2 e2 c2|g2  c2 z2| e2 f2 f2   |ec g2 c2|f2 f2 ec|G2  c2|]
W:Transcription (c) Jack Campin 2009, no mirroring or republication without permission

